data/styles/clear/style-night/symbols/partner12-l.svg

<svg height="32" viewBox="0 0 32 32" width="32"><g fill="none"><ellipse cx="16" cy="15.5" fill="#fff" fill-opacity=".4" rx="16" ry="12.5"/><ellipse cx="16.036" cy="15.544" fill="#5d872d" rx="15" ry="11.5"/><path d="m29.2446628 15.332248c-.0085518-5.3242487-5.9563819-9.63132939-13.2852406-9.62063561-1.9865901.00314524-3.8700751.32285807-5.561226.8940322-1.43443685-.17235872-2.84483192.37727057-2.84483192.37727057s1.02847022 1.61932269 2.57327312 2.21172713c1.0852668.41579967 2.3104275.06573535 2.5251897-.13162795 0-.00015727-.4217793-.83851885-1.7828-1.42573366-.5268208-.22661397-1.25484989-.43136857-2.06258787-.54270978.54408559.04592038 1.0057193-.01179462 2.10486257.32946305 1.5296356.47508729 1.9338273 1.36518794 1.9338273 1.36518794.0876153-.83867611-.4887411-1.43092329-1.0555776-1.7482772 1.3037401-.33182197 2.707681-.51377364 4.1711615-.51566078 6.8677091-.01037927 12.441198 3.93374169 12.4487816 8.80916579.0025817 1.508925-.5287569 2.9304126-1.467353 4.1745091-.0164581-.0161979-.628151-.6260584-1.3768334-1.159018.3369071-1.9646691-1.1460973-3.7911054-2.7593143-4.6922143.7396466-2.2938177-1.5333468-4.63685827-5.6515842-4.72083597-.6128224-.00471784-1.451379.02626269-1.9972395.08334865l.2286386-1.41708427-.3262577.00015726c-1.1427089.00927844-1.5669085.72245979-1.6905056 1.0025427l-.4414645.82751053c-2.5614943.6927373-3.96640331 1.8778608-4.09209806 1.9833833-.29672995.2492596-.2355768.3568266.2923734.1442089.94214586-.3801013 2.03870746-.721359 3.18787046-.9805261l-3.45604076 6.1973651c-1.84863246-.2061699-3.77697378.0053469-4.75268125 1.2266405-.36691893-.8315994-.56651379-1.7155668-.56780462-2.633031-.00451792-2.824261 1.85976588-5.3412329 4.76397602-6.96149919-.7351287-.46722421-1.40039112-.08775197-1.60950587.05850132-.00580875.00393154-.00580875.00440332-.01145613.00770582-2.45822777 1.75346685-3.98173197 4.19621125-3.97753677 6.89576385.0020976 1.2615526.33803657 2.4664909.94698646 3.5701528-.07454553.3802586-.03130267.8284541.31593108 1.2612381.4672811.5813961 1.40248873.8389906 2.49614595.4659661 1.47671155-.5026081 2.61151403-2.0796274 2.97214016-2.6520596-1.0663884-.1698426-1.48816768.2077425-1.63871094.4036905-.4346876.5650409-1.0744561 1.2000633-1.7447205 1.4799889-1.37167011.5736903-2.2589556-.6359659-1.17562504-1.6097297.73319245-.6595552 2.18844393-.79653 3.50073578-.6354941h.03210944c1.65855749.2135612 2.93744909.702802 3.21530059.8130424-.2547779 1.4579723-.4337195 2.3894328-.4337195 2.3894328l.4885799.0056614c1.5961134-.0003145 1.7363301-1.1618487 1.7363301-1.1618487.0024203.0022016.0818064-.4088802.0818064-.4088802 1.4636419.7010722 2.8871066 1.4497947 2.9595546 1.4911545.3743412.2009803.9161678.189343 1.0000719-.3414149l.6202447-4.1128626c1.6232209-.0923126 3.2170754-.708149 4.0677336-1.6084717.7406147.5661418 1.425885 1.4686661 1.5564204 2.5605334-.9063253-.3834038-1.930923-.6126912-2.9826282-.453857-2.4370904.3679922-3.2895234 2.8108938-1.9493173 4.1971548 1.0052352 1.0402855 2.447417 1.1530421 3.9988355.5820252.8183873-.301785 1.6248345-.8927741 2.1758583-1.7278332-.1161749-.1148009-.3362617-.3171966-.586199-.4670669-.6846249-.4104528-1.1922445.054727-1.3393993.21765-.4343649.5302861-1.0291156.9174642-1.6504898 1.0652901-2.8349893.6748095-3.1025142-2.9425218-.1966905-3.0510323.9185882-.0345975 1.7279397.3480199 2.4404788.8507853 0 .0003145-.0003227.0007863-.0003227.0014153.7359355.5381492 1.74585 1.5358168 2.2499198 1.8783326 1.0749402.7295365 2.121482.4082511 2.121482.4082511s-.180555-.2906195-.4818029-.661285c1.1112448-1.4118947 1.7453659-3.0472581 1.7429456-4.7895593zm-17.4196135 2.0344933c-.5508624-.172516-1.5819143-.3813594-1.7963537-.4230337l2.7243004-4.9002714c-.283983 1.6326899-.63638 3.650828-.9279467 5.3233051zm6.3833245-1.9027081.2505827-1.6635132c-1.8818713.0141536-2.1526233 1.2681575-2.1831192 1.4669362-.9008392-.4233482-.1360214-1.335151 1.1306073-1.568999 1.4028114-.2590098 2.7339817.0465495 3.536879.3681494-.4514684.8095828-1.4489586 1.2925331-2.7349498 1.3974266zm3.0615303-2.3832995c-.7133459-.1824235-1.6646889-.3472336-2.6562091-.3129506l.3328732-2.2085819c-2.0059525-.3297776-2.1150278.9849294-2.1150278.9849294-.0713185.4717848-.1528022 1.0107203-.2394493 1.582838-1.8628316.7028021-2.040321 2.3232256-.4471119 2.9540019-.1608699 1.0627739-.4104845 2.7078874-.4141956 2.705214-.5179463-.2203235-1.5593248-.6351796-2.0224107-.8015624l1.2646924-7.8335148c5.4197186-.54742759 6.4790074 1.8850948 6.2968388 2.9296264zm3.8155374 8.2738472-.002259.0012581c-2.2571807 1.7303494-5.5257281 2.820015-9.095362 2.8252047-3.5451082.0050323-6.74524149-1.0536528-9.01323292-2.7297469-.22395931-.1654392-.792248-.5406654-1.50607797-.2022384 2.43031352 2.2818658 6.24020349 3.7492738 10.52108579 3.7425115 4.2962108-.0059759 8.1133617-1.4954005 10.5349621-3.7989684-.6825273-.3289913-1.2792143.0452913-1.439116.1619794z" fill="#fff" opacity=".6"/></g></svg>

<svg width="32" height="32" viewBox="0 0 32 32">
  <g fill="none">
    <ellipse cx="16" cy="15.5" fill="#FFF" fill-opacity=".4" rx="16" ry="12.5"/>
    <ellipse cx="16.036" cy="15.544" fill="#5D872D" rx="15" ry="11.5"/>
    <path fill="#FFF" d="M29.2446628,15.332248 C29.236111,10.0079993 23.2882809,5.70091861 15.9594222,5.71161239 C13.9728321,5.71475763 12.0893471,6.03447046 10.3981962,6.60564459 C8.96375935,6.43328587 7.55336428,6.98291516 7.55336428,6.98291516 C7.55336428,6.98291516 8.5818345,8.60223785 10.1266374,9.19464229 C11.2119042,9.61044196 12.4370649,9.26037764 12.6518271,9.06301434 C12.6518271,9.06285707 12.2300478,8.22449549 10.8690271,7.63728068 C10.3422063,7.41066671 9.61417721,7.20591211 8.80643923,7.0945709 C9.35052482,7.14049128 9.81215853,7.08277628 10.9113018,7.42403395 C12.4409374,7.89912124 12.8451291,8.78922189 12.8451291,8.78922189 C12.9327444,7.95054578 12.356388,7.3582986 11.7895515,7.04094469 C13.0932916,6.70912272 14.4972325,6.52717105 15.960713,6.52528391 C22.8284221,6.51490464 28.401911,10.4590256 28.4094946,15.3344497 C28.4120763,16.8433747 27.8807377,18.2648623 26.9421416,19.5089588 C26.9256835,19.4927609 26.3139906,18.8829004 25.5653082,18.3499408 C25.9022153,16.3852717 24.4192109,14.5588354 22.8059939,13.6577265 C23.5456405,11.3639088 21.2726471,9.02086823 17.1544097,8.93689053 C16.5415873,8.93217269 15.7030307,8.96315322 15.1571702,9.02023918 L15.3858088,7.60315491 L15.0595511,7.60331217 C13.9168422,7.61259061 13.4926426,8.32577196 13.3690455,8.60585487 L12.927581,9.4333654 C10.3660867,10.1261027 8.96117769,11.3112262 8.83548294,11.4167487 C8.53875299,11.6660083 8.59990614,11.7735753 9.12785634,11.5609576 C10.0700022,11.1808563 11.1665638,10.8395986 12.3157268,10.5804315 L8.85968604,16.7777966 C7.01105358,16.5716267 5.08271226,16.7831435 4.10700479,18.0044371 C3.74008586,17.1728377 3.540491,16.2888703 3.53920017,15.3714061 C3.53468225,12.5471451 5.39896605,10.0301732 8.30317619,8.40990691 C7.56804749,7.9426827 6.90278507,8.32215494 6.69367032,8.46840823 C6.68786157,8.47233977 6.68786157,8.47281155 6.68221419,8.47611405 C4.22398642,10.2295809 2.70048222,12.6723253 2.70467742,15.3718779 C2.70677502,16.6334305 3.04271399,17.8383688 3.65166388,18.9420307 C3.57711835,19.3222893 3.62036121,19.7704848 3.96759496,20.2032688 C4.43487606,20.7846649 5.37008369,21.0422594 6.46374091,20.6692349 C7.94045246,20.1666268 9.07525494,18.5896075 9.43588107,18.0171753 C8.36949267,17.8473327 7.94771339,18.2249178 7.79717013,18.4208658 C7.36248253,18.9859067 6.72271403,19.6209291 6.05244963,19.9008547 C4.68077952,20.474545 3.79349403,19.2648888 4.87682459,18.291125 C5.61001704,17.6315698 7.06526852,17.494595 8.37756037,17.6556309 L8.40966981,17.6556309 C10.0682273,17.8691921 11.3471189,18.3584329 11.6249704,18.4686733 C11.3701925,19.9266456 11.1912509,20.8581061 11.1912509,20.8581061 L11.6798308,20.8637675 C13.2759442,20.863453 13.4161609,19.7019188 13.4161609,19.7019188 C13.4185812,19.7041204 13.4979673,19.2930386 13.4979673,19.2930386 C14.9616092,19.9941108 16.3850739,20.7428333 16.4575219,20.7841931 C16.8318631,20.9851734 17.3736897,20.9735361 17.4575938,20.4427782 L18.0778385,16.3299156 C19.7010594,16.237603 21.2949139,15.6217666 22.1455721,14.7214439 C22.8861868,15.2875857 23.5714571,16.19011 23.7019925,17.2819773 C22.7956672,16.8985735 21.7710695,16.6692861 20.7193643,16.8281203 C18.2822739,17.1961125 17.4298409,19.6390141 18.770047,21.0252751 C19.7752822,22.0655606 21.217464,22.1783172 22.7688825,21.6073003 C23.5872698,21.3055153 24.393717,20.7145262 24.9447408,19.8794671 C24.8285659,19.7646662 24.6084791,19.5622705 24.3585418,19.4124002 C23.6739169,19.0019474 23.1662973,19.4671272 23.0191425,19.6300502 C22.5847776,20.1603363 21.9900269,20.5475144 21.3686527,20.6953403 C18.5336634,21.3701498 18.2661385,17.7528185 21.1719622,17.644308 C22.0905504,17.6097105 22.8999019,17.9923279 23.612441,18.4950933 C23.612441,18.4954078 23.6121183,18.4958796 23.6121183,18.4965086 C24.3480538,19.0346578 25.3579683,20.0323254 25.8620381,20.3748412 C26.9369783,21.1043777 27.9835201,20.7830923 27.9835201,20.7830923 C27.9835201,20.7830923 27.8029651,20.4924728 27.5017172,20.1218073 C28.612962,18.7099126 29.2470831,17.0745492 29.2446628,15.332248 Z M11.8250493,17.3667413 C11.2741869,17.1942253 10.243135,16.9853819 10.0286956,16.9437076 L12.752996,12.0434362 C12.469013,13.6761261 12.116616,15.6942642 11.8250493,17.3667413 Z M18.2083738,15.4640332 L18.4589565,13.80052 C16.5770852,13.8146736 16.3063332,15.0686775 16.2758373,15.2674562 C15.3749981,14.844108 16.1398159,13.9323052 17.4064446,13.6984572 C18.809256,13.4394474 20.1404263,13.7450067 20.9433236,14.0666066 C20.4918552,14.8761894 19.494365,15.3591397 18.2083738,15.4640332 Z M21.2699041,13.0807337 C20.5565582,12.8983102 19.6052152,12.7335001 18.613695,12.7677831 L18.9465682,10.5592012 C16.9406157,10.2294236 16.8315404,11.5441306 16.8315404,11.5441306 C16.7602219,12.0159154 16.6787382,12.5548509 16.5920911,13.1269686 C14.7292595,13.8297707 14.5517701,15.4501942 16.1449792,16.0809705 C15.9841093,17.1437444 15.7344947,18.7888579 15.7307836,18.7861845 C15.2128373,18.565861 14.1714588,18.1510049 13.7083729,17.9846221 L14.9730653,10.1511073 C20.3927839,9.60367971 21.4520727,12.0362021 21.2699041,13.0807337 Z M25.0854415,21.3545809 L25.0831825,21.355839 C22.8260018,23.0861884 19.5574544,24.175854 15.9878205,24.1810437 C12.4427123,24.186076 9.24257901,23.1273909 6.97458758,21.4512968 C6.75062827,21.2858576 6.18233958,20.9106314 5.46850961,21.2490584 C7.89882313,23.5309242 11.7087131,24.9983322 15.9895954,24.9915699 C20.2858062,24.985594 24.1029571,23.4961694 26.5245575,21.1926015 C25.8420302,20.8636102 25.2453432,21.2378928 25.0854415,21.3545809 Z" opacity=".6"/>
  </g>
</svg>
